X:1
T:The short grass
C:anon.
L:1/8
M:4/4
I:linebreak $
K:C
V:1 treble 
V:1
 .ab c (e/d/) | cGE cGE z2 | EDE CEG z2 | cGE cGE z2 | Add ded z2 | cGE cGE z2 |$ EDE CEG z2 | %7
 cee e2 d z2 | cAA A2 :: z | gag ged z2 | ecc cde z2 | aba age z2 |$ edd d2 e z2 |1 gag ged z2 | %15
 ecc cde z2 | fed fed z2 | ecA A2 :|2 gfe agf z2 | gfe dcB z2 |$ cee e2 d z2 | cAA A2 |] %22
